X: 32095
T: Periwig, The
R: reel
M: 4/4
K: Eminor
|:"Em"g2fg "Bm"agfa|gefg "Em"dB~B2|g2fg "Bm"agfa|1 gefd "Em"~e3f:|2 gefd "Em"~e3g||
|:"G"dB~B2 dGBd|dGBd "D"cAAe|"G"dB~B2 defd|1 "C"~g2 fd "D"eage:|2 "C"~g2 fd "D"edef||

